lib/preview/nrk-logo-preview-nrk-p3-x-on-light.svg

<svg width="74" height="14" viewBox="0 0 74 14" fill="none" xmlns="http://www.w3.org/2000/svg">
<path d="M73.1429 13.0018L69.0002 6.74239L72.785 1.00183H70.8916L68.1419 5.5714L65.1256 1.00183H63.0448L66.9319 6.82577L62.8572 13.0015H64.7847L67.8184 8.06972L71.0789 13.0015L73.1429 13.0018Z" fill="black"/>
<path d="M46.3331 1.00684H42.6319C42.6319 1.00684 44.735 4.45939 44.7588 4.50285C44.838 4.60269 44.8823 4.72581 44.8848 4.85326C44.8873 4.98071 44.8479 5.10545 44.7726 5.20832L42.6319 8.71732H46.3337C46.3337 8.71732 48.1188 5.79838 48.3628 5.39316C48.4787 5.23792 48.5404 5.049 48.5386 4.85533C48.5368 4.66166 48.4716 4.47391 48.353 4.32083C48.0897 3.87244 48.0891 3.87273 46.3331 1.00684Z" fill="black"/>
<path d="M42.1536 1.00688H38.8571V13.0001H42.1536V1.00688Z" fill="black"/>
<path d="M57.9265 2.99372C57.802 2.78152 56.7004 1.00684 56.7004 1.00684H48.7777L50.5083 3.9097H54.6813L52.96 6.73157L54.8789 9.95556L53.0269 12.9992H56.4092C56.9529 12.1098 57.7659 10.7338 57.9358 10.4519C58.0523 10.2961 58.1144 10.1064 58.1126 9.91185C58.1108 9.71731 58.0452 9.52874 57.9259 9.3751C57.7566 9.08614 56.8508 7.64953 56.3095 6.76516C56.3095 6.76516 57.7659 4.35188 57.9358 4.06998C58.0522 3.91428 58.1144 3.72469 58.1127 3.53028C58.111 3.33587 58.0456 3.14738 57.9265 2.99372Z" fill="black"/>
<path d="M50.3057 7.12128C49.7842 7.97292 48.9123 9.40023 48.7489 9.67846C48.6339 9.82645 48.5707 10.0081 48.569 10.1955C48.5672 10.3829 48.6271 10.5657 48.7393 10.7158C48.903 10.9872 49.7817 12.4258 50.3057 13.2837C50.8295 12.4267 51.7085 10.9881 51.8719 10.7158C51.9841 10.5657 52.0439 10.3829 52.0422 10.1955C52.0405 10.0082 51.9774 9.82652 51.8626 9.67846C51.6992 9.40023 50.8269 7.97292 50.3057 7.12128Z" fill="black"/>
<path d="M0 13.0018V1.00292H3.93719V13.0018H0ZM9.29381 2.91261L11.5581 13.0018H7.24917L4.54549 1.00292H6.96218C7.51635 0.995729 8.05406 1.19108 8.4745 1.55222C8.89562 1.89821 9.18495 2.37853 9.29381 2.91261ZM12.1495 13.0018V1.00292H16.0867V13.0018H12.1495ZM19.0605 5.56593C18.6362 5.57007 18.2188 5.45906 17.8525 5.2448C17.4912 5.03595 17.1911 4.73579 16.9823 4.37443C16.7678 4.00816 16.6568 3.59059 16.661 3.16615C16.6561 2.74429 16.7672 2.32921 16.9823 1.96626C17.1933 1.60882 17.4931 1.31192 17.8525 1.10435C18.2189 0.890333 18.6362 0.779346 19.0605 0.783215C19.4822 0.778673 19.8971 0.88976 20.2602 1.10435C20.616 1.31374 20.9127 1.61039 21.122 1.96626C21.3368 2.32931 21.4479 2.74432 21.4433 3.16615C21.4473 3.59056 21.3363 4.00806 21.122 4.37443C20.9149 4.73421 20.6179 5.03411 20.2602 5.2448C19.8971 5.45981 19.4819 5.57092 19.0599 5.56593H19.0605ZM22.0516 13.0018V1.00292H25.9892V13.0018H22.0516ZM30.9737 7.56006C30.9848 7.57171 31.0693 7.70971 31.2272 7.9741C31.3851 8.23849 31.5907 8.57652 31.8439 8.98812C32.0974 9.39954 32.3649 9.83609 32.6463 10.2978C32.9278 10.7596 33.1926 11.1962 33.4408 11.6076C33.6881 12.019 33.9697 12.4838 34.2857 13.0018H29.9598C29.6893 12.5624 29.4441 12.1653 29.2245 11.8104C29.0048 11.4555 28.7713 11.0724 28.5238 10.6612C28.2758 10.2503 28.0306 9.85037 27.7882 9.4613C27.5458 9.07222 27.3375 8.73144 27.1633 8.43889C26.9883 8.14615 26.8671 7.94895 26.7997 7.84737C26.6325 7.59528 26.5336 7.30413 26.5127 7.00238C26.5294 6.71277 26.6226 6.43281 26.7828 6.19094C26.8504 6.07828 26.9743 5.87826 27.1545 5.59096C27.3348 5.30366 27.546 4.96288 27.7882 4.56855C28.0304 4.17423 28.2756 3.77144 28.5238 3.36021C28.772 2.94898 29.0056 2.56307 29.2245 2.20254C29.4445 1.84238 29.6897 1.44242 29.9598 1.00265H34.2857L30.9396 6.46133C30.8361 6.6234 30.7777 6.81018 30.7706 7.00238C30.7818 7.20415 30.8522 7.39815 30.9731 7.56006H30.9737Z" fill="black"/>
</svg>

<svg xmlns="http://www.w3.org/2000/svg" viewBox="0 0 74 14"><path fill="#000" d="M73.143 13.002 69 6.742l3.785-5.74h-1.893l-2.75 4.57-3.016-4.57h-2.081l3.887 5.824-4.075 6.176h1.928l3.033-4.932L71.078 13h2.065ZM46.333 1.007h-3.701s2.103 3.452 2.127 3.496a.582.582 0 0 1 .014.705l-2.141 3.51h3.702s1.785-2.92 2.029-3.325a.885.885 0 0 0-.01-1.072c-.263-.449-.264-.448-2.02-3.314ZM42.154 1.007h-3.297V13h3.297V1.007ZM57.926 2.994c-.124-.212-1.226-1.987-1.226-1.987h-7.922l1.73 2.903h4.173L52.96 6.732l1.919 3.224-1.852 3.043h3.382c.544-.89 1.357-2.265 1.527-2.547a.888.888 0 0 0-.01-1.077c-.17-.289-1.075-1.725-1.617-2.61l1.627-2.695a.888.888 0 0 0-.01-1.076Z"/><path fill="#000" d="M50.306 7.121a377.05 377.05 0 0 0-1.557 2.557.855.855 0 0 0-.01 1.038c.164.271 1.043 1.71 1.567 2.568a906.39 906.39 0 0 0 1.566-2.568.856.856 0 0 0-.01-1.038 391.068 391.068 0 0 0-1.556-2.557ZM0 13.002v-12h3.937v12H0Zm9.294-10.09 2.264 10.09H7.25l-2.704-12h2.417a2.276 2.276 0 0 1 1.513.55c.42.346.71.827.819 1.36Zm2.855 10.09v-12h3.938v12h-3.938Zm6.912-7.436a2.382 2.382 0 0 1-2.4-2.4 2.301 2.301 0 0 1 .321-1.2 2.41 2.41 0 0 1 3.278-.862c.356.21.653.506.862.862.215.363.326.778.321 1.2a2.35 2.35 0 0 1-.321 1.208 2.4 2.4 0 0 1-.862.87 2.302 2.302 0 0 1-1.2.322Zm2.99 7.436v-12h3.938v12h-3.937Zm8.923-5.442c.01.012.095.15.253.414s.364.603.617 1.014a316.545 316.545 0 0 1 1.597 2.62c.247.411.529.876.845 1.394H29.96c-.27-.44-.516-.837-.736-1.192-.22-.354-.453-.738-.7-1.149a99.5 99.5 0 0 0-.736-1.2c-.242-.389-.45-.73-.625-1.022a17.98 17.98 0 0 0-.363-.592 1.747 1.747 0 0 1-.287-.845c.016-.29.11-.57.27-.811.067-.113.191-.313.371-.6s.392-.628.634-1.022c.242-.395.488-.798.736-1.209l.7-1.157.736-1.2h4.326L30.94 6.46a1.08 1.08 0 0 0-.17.541c.012.202.082.396.203.558Z"/></svg>
